X: 209
T:Brodie House Reel
B:William Marshall, Kinrara (1800)
C:William Marshall
L:1/8
M:C|
N:Duke of Gordon ??
O:Scotland
R:Reel
Z:Clark Bernst + Richard Robinson
%%Caption:by the D. of G.
%%Page:25 - 3
F:http://richardrobinson.tunebook.org.uk/tune/4052
%%TBL:{"version":1,"type":"tune","id":"4052"}
K:F
%%staves { 1 2 }
V:1
e | \
f>a a/g/f/e/ f>c cA | Bd d/c/B/A/ BG Ge | \
f>a a/g/f/e/ f>c cA | B>d {d}c>B AF F  ::
A/B/ | \
c>A d>B c>A FA/c/ | c>A d>B {g}(f/e/f/g/ a)A/B/ | \
c>A d>B cAFA |B>d {d}c>B AFF |]
V:2 clef=bass
L:1/4
z/ | fcff | ffgc | fcff | d/B/c f/F/F/ :: \
z/ | [fa][fb][fa][fa] | [fa][fb][fa]z | [fa][fb][fa]f | d/B/c f/F/ F/ :|

